X:103
T:Finbar Dwyer's
Z: id:dc-reel-95
M:C
L:1/8
K:A Mixolydian
AG|EA,CA, EA,CA,|G,3A, B,A,B,D|EA,B,E ABAG|EB,DB, A,2AG|!
EAAG EAGE|DB,ED B,A,B,D|EA,B,D ABAG|EB,DB, A,2:|!
AG|EAA2 EAAF|G2DG dGBG|EAA2 fAeB|AGED B,DA,2|!
EAA2 fAeA|EAec d2ed|c3A BdcA|^GEDB, A,2:|!

